X: 14550
T: Gan Ainm
R: reel
M: 4/4
K: Gmajor
|:B3d eddB|BddB AGGE|DBBA BAGE|GABG BAA2|
Bdde dBAG|BAGA GEDG|B2BA GEDE|DEGA BGG2:|
|:Bdde ceed|BddB AGGE|DBBA Bdef|gedB BAA2|
Bdde dee2|BAGA GEDG|B2BA GEDE|DEGA BGG2:|

